!!!COM:      Bach, Johann Sebastian
!!!CDT:      1685/03/31/-1750/07/28/
!!!OPR@@GER: Das wohltemperirte Clavier
!!!OVM@@GER: Band II
!!!OPR@ENG:  Well-Tempered Clavier
!!!OVM@ENG:  Book II
!!!OTL:      Prelude
!!!OKY:      B-flat major
!!!ONM:      no. 21
!!!SCT:      BWV 890
!!!OMV:      1
**kern	**kern	**kern	**kern	**kern
*>[A,A,B,B]	*>[A,A,B,B]	*>[A,A,B,B]	*>[A,A,B,B]	*>[A,A,B,B]
*>norep[A,B]	*>norep[A,B]	*>norep[A,B]	*>norep[A,B]	*>norep[A,B]
*>A	*>A	*>A	*>A	*>A
*clefF4	*clefG2	*	*	*clefG2
*k[b-e-]	*k[b-e-]	*	*	*k[b-e-]
*B-:	*B-:	*	*	*B-:
*M12/16	*M12/16	*	*	*M12/16
*MM64	*MM64	*MM64	*MM64	*MM64
=1-	=1-	=1-	=1-	=1-
[2.B-	4.r	2.ryy	2.ryy	16r
.	.	.	.	16bb-
.	.	.	.	16aa
.	.	.	.	16gg
.	.	.	.	16ff
.	.	.	.	16ee-
.	16r	.	.	8.dd
.	16b-	.	.	.
.	16a	.	.	.
.	16g	.	.	8.ee-
.	16f	.	.	.
.	16e-	.	.	.
=2	=2	=2	=2	=2
16B-]	8d	2.ryy	2.ryy	8ff
16B-	.	.	.	.
16A-	16f	.	.	16dd
16G	8b-	.	.	8ee-
16F	.	.	.	.
16E-	16ee-	.	.	16gg
16B-	[8.ee-	.	.	16ggW
16An	.	.	.	16ff
16B-	.	.	.	16gg
[8.BB-	16ee-]	.	.	[8.ff
.	16dd	.	.	.
.	16cc	.	.	.
=3	=3	=3	=3	=3
16BB-]	8.dd	2.ryy	2.ryy	8ff]
16D	.	.	.	.
16E-	.	.	.	16b-
16F	8.cc	.	.	8a
16G	.	.	.	.
16A	.	.	.	16ee-
8.B-	16b-	.	.	8.dd
.	16d	.	.	.
.	16e-	.	.	.
8.A	16f	.	.	8.cc
.	16g	.	.	.
.	16a	.	.	.
=4	=4	=4	=4	=4
8G	[4.b-	2.ryy	2.ryy	16b-
.	.	.	.	16cc
16F	.	.	.	16dd
8G	.	.	.	16ee-
.	.	.	.	16ff
16E-	.	.	.	16gg
[8.F	16b-]	.	.	[4.cc
.	16a	.	.	.
.	16g	.	.	.
16F]	[8.a	.	.	.
16A	.	.	.	.
16c	.	.	.	.
=5	=5	=5	=5	=5
8.f	16a]	2.ryy	2.ryy	16cc]
.	16r	.	.	16a
.	16r	.	.	16b-
8.e-	8.r	.	.	16cc
.	.	.	.	16dd
.	.	.	.	16ee-
8.d	16r	.	.	8.ff
.	16f	.	.	.
.	16g	.	.	.
8.c	16a	.	.	8.ee-
.	16b-	.	.	.
.	16cc	.	.	.
=6	=6	=6	=6	=6
16B-	8dd	2.ryy	2.ryy	[8.dd
16BB-	.	.	.	.
16C	16g	.	.	.
16D	8f#	.	.	8dd]
16En	.	.	.	.
16F#	[16a	.	.	16cc
[8.G	16a]	.	.	[4.b-
.	16d	.	.	.
.	16f#X	.	.	.
16G]	[8.g	.	.	.
16B-	.	.	.	.
16D	.	.	.	.
=7	=7	=7	=7	=7
8.En	8.g_	2.ryy	2.ryy	16b-]
.	.	.	.	16cc
.	.	.	.	16g
[8.F	16g]	.	.	[8.a
.	16c	.	.	.
.	16en	.	.	.
16F]	[4.f	.	.	8.a]
16F	.	.	.	.
16En	.	.	.	.
16D	.	.	.	[8b-T
16C	.	.	.	.
16BB-	.	.	.	32b-]
.	.	.	.	64a
.	.	.	.	64b-
=8	=8	=8	=8	=8
8.AA	4.f_	2.ryy	2.ryy	16cc
.	.	.	.	16ff
.	.	.	.	16een
8.BB-	.	.	.	16dd
.	.	.	.	16cc
.	.	.	.	16b-
[8.C	8.f]	.	.	16aw
.	.	.	.	16g
.	.	.	.	16a
16C]	8.en	.	.	8.g
16En	.	.	.	.
16G	.	.	.	.
=9	=9	=9	=9	=9
16B-	2.ryy	2.ryy	2.ryy	16c
16A	.	.	.	16en
16B-	.	.	.	16g
16C	.	.	.	16b-
16En	.	.	.	16a
16G	.	.	.	16b-
16A	.	.	.	16c
16G	.	.	.	16en
16A	.	.	.	16f
16C	.	.	.	16a
16En	.	.	.	16g
16F	.	.	.	16a
=10	=10	=10	=10	=10
16G	2.ryy	2.ryy	2.ryy	16B-
16F	.	.	.	16d
16G	.	.	.	16en
16C	.	.	.	16g
16D	.	.	.	16f
16En	.	.	.	16g
[8.F	.	.	.	16B-
.	.	.	.	16A
.	.	.	.	16c
16F]	.	.	.	16f
16C	.	.	.	16a
16AA	.	.	.	16cc
=11	=11	=11	=11	=11
16FF	2.ryy	2.ryy	2.ryy	16ee-X
16AA	.	.	.	16dd
16C	.	.	.	16ee-
16E-X	.	.	.	16f
16D	.	.	.	16a
16E-	.	.	.	16cc
16FF	.	.	.	16dd
16AA	.	.	.	16cc
16BB-	.	.	.	16dd
16D	.	.	.	16f
16C	.	.	.	16a
16D	.	.	.	16b-
=12	=12	=12	=12	=12
16EE-	2.ryy	2.ryy	2.ryy	16cc
16GG	.	.	.	16b-
16AA	.	.	.	16cc
16C	.	.	.	16e-
16BB-	.	.	.	16g
16C	.	.	.	16a
16EE-	.	.	.	16a
16DD	.	.	.	16b-
16FF	.	.	.	16f
16BB-	.	.	.	[8.d
16D	.	.	.	.
16F	.	.	.	.
=13	=13	=13	=13	=13
8.B-	2.ryy	2.ryy	2.ryy	16d]
.	.	.	.	16c
.	.	.	.	16d
*clefG2	*	*	*	*
8.f	.	.	.	16A
.	.	.	.	16d
.	.	.	.	16B-
8.b-	.	.	.	16G
.	.	.	.	16d
.	.	.	.	16B-
*clefF4	*	*	*	*
8.E-	.	.	.	16G
.	.	.	.	16d
.	.	.	.	16b-
=14	=14	=14	=14	=14
8.AA	2.ryy	2.ryy	2.ryy	16c
.	.	.	.	16B-
.	.	.	.	16c
*clefG2	*	*	*	*
8.e-	.	.	.	16G
.	.	.	.	16c
.	.	.	.	16A
8.a	.	.	.	16F#
.	.	.	.	16c
.	.	.	.	16A
*clefF4	*	*	*	*
8.D	.	.	.	16F#
.	.	.	.	16c
.	.	.	.	16a
=15	=15	=15	=15	=15
8.GG	2.ryy	2.ryy	2.ryy	16B-
.	.	.	.	16A
.	.	.	.	16B-
16F	.	.	.	8.d
16B-	.	.	.	.
16G	.	.	.	.
16En	.	.	.	8.g
16B-	.	.	.	.
16G	.	.	.	.
*	*	*	*	*clefF4
16E	.	.	.	8.C
16B-	.	.	.	.
16g	.	.	.	.
=16	=16	=16	=16	=16
16A-	2.ryy	2.ryy	2.ryy	8.FF
16G	.	.	.	.
16A-	.	.	.	.
*	*	*	*	*clefG2
16E-X	.	.	.	8.c
16A-	.	.	.	.
16F	.	.	.	.
16D	.	.	.	8.f
16A-	.	.	.	.
16F	.	.	.	.
*	*	*	*	*clefF4
16D	.	.	.	8.BB-
16A-	.	.	.	.
16f	.	.	.	.
=17	=17	=17	=17	=17
16G	2.ryy	2.ryy	2.ryy	8.EE-
16f	.	.	.	.
16e-	.	.	.	.
*	*	*	*	*clefG2
16d	.	.	.	[8.e-
16c	.	.	.	.
16B-	.	.	.	.
8.An	.	.	.	16e-]
.	.	.	.	16cc
.	.	.	.	16b-
8.F	.	.	.	16a
.	.	.	.	16g
.	.	.	.	16f
=18	=18	=18	=18	=18
*	*staff:6	*	*	*
4.BB-	16r	2.ryy	2.ryy	8e-
.	16c	.	.	.
.	16B-	.	.	16d
.	16A	.	.	[8.b-
.	16G	.	.	.
.	16F	.	.	.
4.C	8En	.	.	16b-]
.	.	.	.	16dd
.	16G	.	.	16cc
.	[8.c	.	.	16b-
.	.	.	.	16a
.	.	.	.	16g
=19	=19	=19	=19	=19
4.D	8.c]	2.ryy	2.ryy	16f
.	.	.	.	16g
.	.	.	.	16a
.	8F	.	.	16b-
.	.	.	.	16cc
.	16B-	.	.	[16dd
16En	[4.g	.	.	8.dd]
16G	.	.	.	.
16F	.	.	.	.
16E	.	.	.	8cc
16D	.	.	.	.
16C	.	.	.	16b-
=20	=20	=20	=20	=20
4.F	8.g]	2.ryy	2.ryy	16a
.	.	.	.	16b-
.	.	.	.	16cc
.	8f	.	.	16dd
.	.	.	.	16een
.	16d	.	.	[16ff
16G	4.b-	.	.	8.ff]
16B-	.	.	.	.
16A	.	.	.	.
16G	.	.	.	8een
16F	.	.	.	.
16En	.	.	.	16dd
=21	=21	=21	=21	=21
16A	8cc	2.ryy	2.ryy	16cc
16G	.	.	.	16ff
16A	16r	.	.	16een
16B-	8.r	.	.	16dd
16A	.	.	.	16cc
16G	.	.	.	16b-
[4.F	16r	.	.	16a
.	16f	.	.	16g
.	16en	.	.	16a
.	16d	.	.	16b-
.	16c	.	.	16a
.	16B-	.	.	16g
=22	=22	=22	=22	=22
16F]	8A	2.ryy	2.ryy	16f
16F	.	.	.	16g
16E-X	16r	.	.	16a
16D	[8.f	.	.	16b-
16C	.	.	.	16cc
16BB-	.	.	.	16dd
8C	16f]	.	.	8dd
.	16en	.	.	.
16r	16d	.	.	16g
8.r	16c	.	.	16a
.	16B-	.	.	16b-
.	16A	.	.	16cc
=23	=23	=23	=23	=23
16r	[4.d	2.ryy	2.ryy	8cc
16D	.	.	.	.
16C	.	.	.	16f
16BB-	.	.	.	16g
16AA	.	.	.	16a
16GG	.	.	.	16b-
8C	16d]	.	.	8b-
.	16c	.	.	.
16BB-	16d	.	.	16r
8AA	16en	.	.	8.r
.	16f	.	.	.
16GG	16g	.	.	.
=24	=24	=24	=24	=24
8FF	8a	2.ryy	2.ryy	16r
.	.	.	.	16f
16E-X	16r	.	.	16g
8D	8.r	.	.	16a
.	.	.	.	16b-
16C	.	.	.	16cc
8BB-	4.r	.	.	16dd
.	.	.	.	16b-
16A	.	.	.	16cc
8G	.	.	.	16dd
.	.	.	.	16een
16F	.	.	.	16ff
=25	=25	=25	=25	=25
8En	16r	2.ryy	2.ryy	[4.gg
.	16ff	.	.	.
16G	16een	.	.	.
8E	16dd	.	.	.
.	16cc	.	.	.
16C	16b-	.	.	.
16F	[4.a	.	.	8gg]
16g	.	.	.	.
16f	.	.	.	16cc
16e-	.	.	.	8ff
16d	.	.	.	.
16c	.	.	.	16ee-
=26	=26	=26	=26	=26
8.B-	16a]	2.ryy	2.ryy	[4.dd
.	16cc	.	.	.
.	16b-	.	.	.
8.Bnt	16a	.	.	.
.	16g	.	.	.
.	16f	.	.	.
16c	4.en	.	.	8dd]
16d	.	.	.	.
16c	.	.	.	16g
16B-	.	.	.	8cc
16A	.	.	.	.
16G	.	.	.	16b-
=27	=27	=27	=27	=27
16F	16r	2.ryy	2.ryy	[8.a
16G	16r	.	.	.
16F	16c	.	.	.
16E-X	8.f	.	.	16a]
16D	.	.	.	16bn
16C	.	.	.	16cc
4.BBn	16r	.	.	16dd
.	16r	.	.	16f
.	16D	.	.	16g
.	8F	.	.	16a-
.	.	.	.	16g
.	16A-X	.	.	16f
=28	=28	=28	=28	=28
[8.C	[8.G	2.ryy	2.ryy	16en
.	.	.	.	16c
.	.	.	.	16Bn
8C]	8G]	.	.	16c
.	.	.	.	16d
16B-X	16r	.	.	16en
8A-	4.ryy	.	.	16f
.	.	.	.	16c
16G	.	.	.	16Bn
16A-	.	.	.	16c
16c	.	.	.	16en
16F	.	.	.	16f
=29	=29	=29	=29	=29
8En	2.ryy	2.ryy	2.ryy	16g
.	.	.	.	16c
16D	.	.	.	16Bn
16E	.	.	.	16c
16G	.	.	.	16f
16C	.	.	.	16g
16F	.	.	.	16a-
16A-	.	.	.	16f
16E-	.	.	.	16g
16D-	.	.	.	16a-
16F	.	.	.	16b-
16C	.	.	.	16cc
=30	=30	=30	=30	=30
16BB-	2.ryy	2.ryy	2.ryy	16dd-
16D-	.	.	.	16b-
16F	.	.	.	16cc
[8.B-	.	.	.	16dd-
.	.	.	.	16ee-
.	.	.	.	16ff
8B-]	.	.	.	16gg-
.	.	.	.	16aa-
16BB-	.	.	.	16bb-
8B-	.	.	.	16aa-
.	.	.	.	16gg-
16Bn	.	.	.	16ff
=31	=31	=31	=31	=31
16c	2.ryy	2.ryy	2.ryy	16een
16C	.	.	.	16ggn
16Dn	.	.	.	16b-
16En	.	.	.	16dd-
16F	.	.	.	16cc
16G	.	.	.	16b-
16An	.	.	.	16cc
16B-	.	.	.	16ff
16c	.	.	.	16an
16d	.	.	.	16b-
16c	.	.	.	16cc
16B-	.	.	.	16ddn
=32	=32	=32	=32	=32
16A	2.ryy	2.ryy	2.ryy	16cc
16G	.	.	.	16b-
16F	.	.	.	16a
8c	.	.	.	16g
.	.	.	.	16ff
16C	.	.	.	16een
16FF	.	.	.	16ff
16AA	.	.	.	16cc
16C	.	.	.	16a
8.F	.	.	.	8.f
=33:||:	=33:||:	=33:||:	=33:||:	=33:||:
*>B	*>B	*>B	*>B	*>B
16FF	2.ryy	2.ryy	2.ryy	16a
16A	.	.	.	16f
16G	.	.	.	16en
16A	.	.	.	16f
16B-	.	.	.	16g
16c	.	.	.	16a
16GG	.	.	.	16b-
16d	.	.	.	16fn
16c	.	.	.	16e
16B-	.	.	.	16f
16A	.	.	.	16a
16G	.	.	.	16b-
=34	=34	=34	=34	=34
*	*staff:12	*staff:12	*staff:12	*
*	*	*clefG2	*clefG2	*
*	*	*k[b-e-]	*k[b-e-]	*
16AA	4.ryy	4.ryy	4.ryy	16cc
16A	.	.	.	16f
16B-	.	.	.	16en
16A	.	.	.	16f
16G	.	.	.	16b-
16F	.	.	.	16cc
16BB-	16dd	8ryy	16ryy	[8.dd
16D	16b-	.	[8b-	.
16E-X	16f	[16f	.	.
16F	[8.d	8f]	8b-]	8dd]
16G	.	.	.	.
16A-	.	16ryy	16ryy	16cc
=35	=35	=35	=35	=35
16GG	16d]	2.ryy	2.ryy	16bn
16Bn	8ryy	.	.	16g
16An	.	.	.	16f#
16B	8.ryy	.	.	16g
16c	.	.	.	16a
16d	.	.	.	16b
16AA	4.ryy	.	.	16cc
16e-	.	.	.	16g
16d	.	.	.	16f#X
16c	.	.	.	16g
16Bn	.	.	.	16bn
16A	.	.	.	16cc
=36	=36	=36	=36	=36
16BBn	2.ryy	2.ryy	2.ryy	16dd
16Bn	.	.	.	16g
16A	.	.	.	16f#
16B	.	.	.	16g
16A	.	.	.	16cc
16G	.	.	.	16dd
16C	.	.	.	16ee-
16E-	.	.	.	16cc
16F	.	.	.	[16g
16G	.	.	.	16g]
16A	.	.	.	16gg
16Bn	.	.	.	16ffn
=37	=37	=37	=37	=37
8.c	2.ryy	2.ryy	2.ryy	16ee-
.	.	.	.	16dd
.	.	.	.	16cc
*clefG2	*	*	*	*
8.gg	.	.	.	16b-X
.	.	.	.	16ee-
.	.	.	.	16cc
8.ccc	.	.	.	16a-
.	.	.	.	16ee-
.	.	.	.	16cc
*clefF4	*	*	*	*
8.A-	.	.	.	16f
.	.	.	.	16cc
.	.	.	.	16ee-
=38	=38	=38	=38	=38
8.B-	2.ryy	2.ryy	2.ryy	16dd
.	.	.	.	16cc
.	.	.	.	16b-
*clefG2	*	*	*	*
8.ff	.	.	.	16a-
.	.	.	.	16dd
.	.	.	.	16b-
8.bb-	.	.	.	16g
.	.	.	.	16dd-
.	.	.	.	16b-
*clefF4	*	*	*	*
8.G	.	.	.	16e-
.	.	.	.	16b-
.	.	.	.	16dd-
=39	=39	=39	=39	=39
8.A-	2.ryy	2.ryy	2.ryy	16cc
.	.	.	.	16bn
.	.	.	.	16cc
*clefG2	*	*	*	*
16g	.	.	.	8.ee-
16cc	.	.	.	.
16a-X	.	.	.	.
16f	.	.	.	8.aa-
16cc	.	.	.	.
16a-	.	.	.	.
*	*	*	*	*clefF4
16d	.	.	.	8.F
16a-	.	.	.	.
16cc	.	.	.	.
=40	=40	=40	=40	=40
16bn	2.ryy	2.ryy	2.ryy	8.G
16an	.	.	.	.
16g	.	.	.	.
*	*	*	*	*clefG2
16f	.	.	.	8.dd
16b	.	.	.	.
16g	.	.	.	.
16en	.	.	.	8.gg
16b-	.	.	.	.
16g	.	.	.	.
*	*	*	*	*clefF4
16c	.	.	.	8.En
16g	.	.	.	.
16b-	.	.	.	.
=41	=41	=41	=41	=41
16a-	2.ryy	2.ryy	2.ryy	8.F
16g	.	.	.	.
16f	.	.	.	.
*	*	*	*	*clefG2
16e-X	.	.	.	[8.ff
16d	.	.	.	.
16c	.	.	.	.
*clefF4	*	*	*	*
8.Bn	.	.	.	16ff]
.	.	.	.	16g
.	.	.	.	16an
8.G	.	.	.	16bn
.	.	.	.	16cc
.	.	.	.	16dd
=42	=42	=42	=42	=42
8.c	2.ryy	2.ryy	2.ryy	16ee-
.	.	.	.	16dd
.	.	.	.	16cc
8.c#	.	.	.	16b-X
.	.	.	.	16a
.	.	.	.	16g
[8.d	.	.	.	16f#
.	.	.	.	16dd
.	.	.	.	16een
16d]	.	.	.	16ff#X
16cn	.	.	.	16gg
16B-	.	.	.	16aa
=43	=43	=43	=43	=43
*	*staff:8	*	*	*
16e-	8.r	2.ryy	2.ryy	8gg
16d	.	.	.	.
16c	.	.	.	16g
16B-	16r	.	.	[8.cc
16A	16r	.	.	.
16G	16e-	.	.	.
16F#	[4.d	.	.	8cc]
16A	.	.	.	.
16G	.	.	.	16a
16F#	.	.	.	8dd
16En	.	.	.	.
16D	.	.	.	16cc
=44	=44	=44	=44	=44
[8.G	16d]	2.ryy	2.ryy	8.b-
.	16dd	.	.	.
.	16cc	.	.	.
16G]	16b-	.	.	[8.ee-
16A	16a	.	.	.
16B-	16g	.	.	.
16A	[8.f	.	.	16ee-]
16c	.	.	.	16a
16B-	.	.	.	16b-
16A	8f]	.	.	16cc
16G	.	.	.	16dd
16F	16r	.	.	16ee-
=45	=45	=45	=45	=45
16B-	4.r	2.ryy	2.ryy	16dd
16A	.	.	.	16gg
16B-	.	.	.	16ff
16c	.	.	.	16ee-
16f#	.	.	.	16dd
16a	.	.	.	16cc
16d	16r	.	.	16b-
16r	16g	.	.	16a
16r	16fn	.	.	16b-
8.r	16e-	.	.	16cc
.	16d	.	.	16ff#
.	16c	.	.	16aa
=46	=46	=46	=46	=46
16r	8B-	2.ryy	2.ryy	8dd
16G	.	.	.	.
16F	16d	.	.	16b-
16E-	[8.g	.	.	16cc
16D	.	.	.	16dd
16C	.	.	.	16ee-
8F	16g]	.	.	8ee-
.	16f	.	.	.
16r	16e-	.	.	16a
8.r	16d	.	.	16b-
.	16c	.	.	16cc
.	16B-	.	.	16dd
=47	=47	=47	=47	=47
16r	[4.e-	2.ryy	2.ryy	8dd
16E-	.	.	.	.
16D	.	.	.	16g
16C	.	.	.	16a
16BB-	.	.	.	16b-
16AA	.	.	.	16cc
8.D	16e-]	.	.	16cc
.	16e-	.	.	[8f#
.	16d	.	.	.
[8.E-	16c	.	.	16f#]
.	16B-	.	.	16g
.	16A	.	.	16a
=48	=48	=48	=48	=48
8E-]	16G	2.ryy	16r	16b-
.	16F#	.	16cc	16ee-
16BB-	16G	.	16b-	16dd
8C	16A	.	16a	16cc
.	16B-	.	16g	16b-
16D	[16c	.	16f#X	16a
[8.G	16c]	.	8.g	8.g
.	16B-	.	.	.
.	16A	.	.	.
16G]	8B-	.	8.r	8.r
16Fn	.	.	.	.
16E-	16r	.	.	.
=49	=49	=49	=49	=49
8.D	4.r	2.ryy	2.ryy	16r
.	.	.	.	16bb-
.	.	.	.	16aa
8.E-	.	.	.	16gg
.	.	.	.	16ff
.	.	.	.	16ee-
8.F	16r	.	.	8.dd
.	16b-	.	.	.
.	16a-	.	.	.
8.G	16g	.	.	8.ee-
.	16f	.	.	.
.	16e-	.	.	.
=50	=50	=50	=50	=50
16A-	8d	2.ryy	2.ryy	8ff
16B-	.	.	.	.
16A-	16f	.	.	16dd
16G	[8.b-	.	.	8ee-
16F	.	.	.	.
16E-	.	.	.	16gg
16F	8b-]	.	.	8.cc
16G	.	.	.	.
16F	[16an	.	.	.
16E-	8a]	.	.	[8.ff
16D	.	.	.	.
16C	16a-	.	.	.
=51	=51	=51	=51	=51
8BBn	[8.g	2.ryy	2.ryy	16ff]
.	.	.	.	16ee-
16r	.	.	.	16dd
8C	16g]	.	.	[8.ee-
.	16cc	.	.	.
16r	16an	.	.	.
8AA	[8.f	.	.	16ee-]
.	.	.	.	16dd
16r	.	.	.	16cc
16BB-	16f]	.	.	[8.dd
16B-	16g	.	.	.
16A	16a	.	.	.
=52	=52	=52	=52	=52
16G	[8.b-	2.ryy	2.ryy	16dd]
16F	.	.	.	16ee-
16E-	.	.	.	16ff
16D	16b-]	.	.	16gg
16C	16cc	.	.	16aa
16BB-	16dd	.	.	16bb-
[8.F	16dd	.	.	8.b-
.	16cc	.	.	.
.	16dd	.	.	.
16F]	8.cc	.	.	8.a
16A	.	.	.	.
16c	.	.	.	.
=53	=53	=53	=53	=53
16e-	2.ryy	2.ryy	2.ryy	16f
16d	.	.	.	16a
16e-	.	.	.	16cc
16F	.	.	.	16ee-
16A	.	.	.	16dd
16c	.	.	.	16ee-
16d	.	.	.	16f
16c	.	.	.	16a
16d	.	.	.	16b-
16F	.	.	.	16dd
16A	.	.	.	16cc
16B-	.	.	.	16dd
=54	=54	=54	=54	=54
16c	2.ryy	2.ryy	2.ryy	16e-
16B-	.	.	.	16g
16c	.	.	.	16a
16F	.	.	.	16cc
16G	.	.	.	16b-
16A	.	.	.	16cc
16B-	.	.	.	16e-
16F	.	.	.	16d
16D	.	.	.	16f
16BB-	.	.	.	16b-
16F	.	.	.	16dd
16AA-	.	.	.	16ee-
=55	=55	=55	=55	=55
16GG	2.ryy	2.ryy	2.ryy	16ff
16BBn	.	.	.	16ee-
16D	.	.	.	16ff
16F	.	.	.	16g
16E-	.	.	.	16bn
16F	.	.	.	16dd
16GG	.	.	.	16ee-
16BBn	.	.	.	16dd
16C	.	.	.	16ee-
16E-	.	.	.	16g
16D	.	.	.	16bn
16E-	.	.	.	16cc
=56	=56	=56	=56	=56
16FF	2.ryy	2.ryy	2.ryy	16dd
16AA-	.	.	.	16cc
16BBn	.	.	.	16dd
16D	.	.	.	16f
16C	.	.	.	16a-
16D	.	.	.	16bn
16FF	.	.	.	16b
16EE-	.	.	.	16cc
16GG	.	.	.	16g
16C	.	.	.	[8.e-
16E-	.	.	.	.
16G	.	.	.	.
=57	=57	=57	=57	=57
*	*staff:14	*	*	*
[8.c	4.ryy	2.ryy	2.ryy	16e-]
.	.	.	.	16ee-
.	.	.	.	16dd
16c]	.	.	.	16cc
16d	.	.	.	16b-
16e-	.	.	.	16a-
16d	[4.a-	.	.	[4.ff
16B-	.	.	.	.
16c	.	.	.	.
16d	.	.	.	.
16e-	.	.	.	.
16f	.	.	.	.
=58	=58	=58	=58	=58
[8.G	8.a-]	2.ryy	2.ryy	16ff]
.	.	.	.	16b-
.	.	.	.	16dd
16G]	8.g	.	.	16ee-
16An	.	.	.	16ff
16B-	.	.	.	16dd
16A	[4.f	.	.	[4.ee-
16F	.	.	.	.
16G	.	.	.	.
16A	.	.	.	.
16B-	.	.	.	.
16c	.	.	.	.
=59	=59	=59	=59	=59
[8.D	16f]	2.ryy	2.ryy	8.ee-]
.	16f	.	.	.
.	16a	.	.	.
16D]	16b-	.	.	8.dd
16En	16cc	.	.	.
16F	16a	.	.	.
16E	[4.b-	.	.	[4.gg
16C	.	.	.	.
16D	.	.	.	.
16E	.	.	.	.
16F	.	.	.	.
16G	.	.	.	.
=60	=60	=60	=60	=60
[8.AA-	8.b-]	2.ryy	2.ryy	16gg]
.	.	.	.	16cc
.	.	.	.	16een
16AA-]	8.a-	.	.	16ff
16BB-	.	.	.	16gg
16C	.	.	.	16ee
16BBn	[4.g	.	.	[4.ff
16GG	.	.	.	.
16AAn	.	.	.	.
16BB	.	.	.	.
16C	.	.	.	.
16D	.	.	.	.
=61	=61	=61	=61	=61
[8.EE-	16g]	2.ryy	2.ryy	8.ff]
.	16g	.	.	.
.	16bn	.	.	.
16EE-]	16cc	.	.	8.ee-X
16FF	16dd	.	.	.
16GG	16b	.	.	.
16FF#	[4.cc	.	.	[4.dd
16DD	.	.	.	.
16EEn	.	.	.	.
16FF#	.	.	.	.
16GG	.	.	.	.
16AA	.	.	.	.
=62	=62	=62	=62	=62
16BB-	16cc]	2.ryy	2.ryy	4.dd_
16GG	16b-X	.	.	.
16AA	16a	.	.	.
16BB-	16g	.	.	.
16C	16a	.	.	.
16D	16f#	.	.	.
16E-	[4.g	.	.	16dd]
16C	.	.	.	16ee-
16D	.	.	.	16dd
16E-	.	.	.	16cc
16F	.	.	.	16dd
16G	.	.	.	16b-
=63	=63	=63	=63	=63
16AA	16g]	2.ryy	2.ryy	[4.cc
16FF	16a	.	.	.
16GG	16g	.	.	.
16AA	16f	.	.	.
16BB-	16g-	.	.	.
16C	16e-	.	.	.
16D-	[4.f	.	.	16cc]
16BB-	.	.	.	16dd-
16C	.	.	.	16cc
16D-	.	.	.	16b-
16E-	.	.	.	16cc
16F	.	.	.	16a
=64	=64	=64	=64	=64
8.GG-	8.f]	2.ryy	2.ryy	16b-
.	.	.	.	16cc
.	.	.	.	[16dd-
8.GGn	8.en	.	.	16dd-]
.	.	.	.	16cc
.	.	.	.	[16b-
16FF	[8.f	.	.	16b-]
16AA	.	.	.	16a
16BB-	.	.	.	16g
16C	8f]	.	.	8a
16D	.	.	.	.
16E-	16r	.	.	16r
=65	=65	=65	=65	=65
8.F	4.r	2.ryy	2.ryy	16r
.	.	.	.	16A
.	.	.	.	16B-
8.E-	.	.	.	16c
.	.	.	.	16d
.	.	.	.	16e-
8.D	16r	.	.	8.f
.	16F	.	.	.
.	16G	.	.	.
8.C	16A	.	.	8.e-
.	16B-	.	.	.
.	16c	.	.	.
=66	=66	=66	=66	=66
16BB-	[4.d	2.ryy	2.ryy	8d
16c	.	.	.	.
16B-	.	.	.	16g
16A	.	.	.	8f#
16G	.	.	.	.
16F#	.	.	.	16cc
8.G	16d]	.	.	8.b-
.	16a	.	.	.
.	16g	.	.	.
8.B-	16fn	.	.	[8.a-
.	16e-	.	.	.
.	16d	.	.	.
=67	=67	=67	=67	=67
8.E-	8e-	2.ryy	2.ryy	16a-]
.	.	.	.	16g
.	16r	.	.	16an
8.D	8.r	.	.	16b-
.	.	.	.	16cc
.	.	.	.	16dd
8.C	16r	.	.	8.ee-
.	16e-	.	.	.
.	16f	.	.	.
8.BB-	16g	.	.	8.dd
.	16a	.	.	.
.	16b-	.	.	.
=68	=68	=68	=68	=68
16AA	8cc	2.ryy	2.ryy	[4.cc
16B-	.	.	.	.
16A	16f	.	.	.
16G	8en	.	.	.
16F	.	.	.	.
16En	16b-	.	.	.
16F	16a	.	.	4.cc_
16FF	16b-	.	.	.
16GG	16a	.	.	.
16AA	16g	.	.	.
16BB-	16f	.	.	.
16C	16e-	.	.	.
=69	=69	=69	=69	=69
8.D	8.f	2.ryy	2.ryy	16cc]
.	.	.	.	16a
.	.	.	.	[16b-
8.C	8e-	.	.	16b-]
.	.	.	.	16a
.	16r	.	.	16ee-
8.BB-	16r	.	.	[4.dd
.	16d	.	.	.
.	[16g	.	.	.
8.AA	16g]	.	.	.
.	16f#	.	.	.
.	16cc	.	.	.
=70	=70	=70	=70	=70
16GG	8.b-	2.ryy	2.ryy	8.dd]
16a-	.	.	.	.
16g	.	.	.	.
16f	8.bn	.	.	8.aa-
16e-	.	.	.	.
16d	.	.	.	.
16e-	8cc	.	.	8.gg
16f	.	.	.	.
16e-	16an	.	.	.
16d	8bn	.	.	8.ff
16c	.	.	.	.
16Bn	16dd	.	.	.
=71	=71	=71	=71	=71
16c	8.g	2.ryy	2.ryy	8.ee-
16d	.	.	.	.
16c	.	.	.	.
16B-X	8.dd-	.	.	8.een
16A	.	.	.	.
16G	.	.	.	.
16A	8.cc	.	.	8ff
16B-	.	.	.	.
16A	.	.	.	16ddn
16G	[8.b-	.	.	8een
16F	.	.	.	.
16En	.	.	.	16gg
=72	=72	=72	=72	=72
16F	8b-]	2.ryy	2.ryy	[4.cc
16G	.	.	.	.
16F	16a	.	.	.
16E-X	8g	.	.	.
16D	.	.	.	.
16C	16cc	.	.	.
16D	[4.f	.	.	8cc]
16E-	.	.	.	.
16D	.	.	.	16b-
16C	.	.	.	8a
16BB-	.	.	.	.
16AA	.	.	.	16ee-
=73	=73	=73	=73	=73
16BB-	8f]	2.ryy	2.ryy	[4.dd
16C	.	.	.	.
16BB-	16g	.	.	.
16AA	8f#	.	.	.
16GG	.	.	.	.
16FF#	16cc	.	.	.
16GG	[4.b-	.	.	8dd]
16AA	.	.	.	.
16GG	.	.	.	16ee-
16FFn	.	.	.	8dd
16EE-	.	.	.	.
16DD	.	.	.	16aa-
=74	=74	=74	=74	=74
*	*	*	*staff:6	*
8EE-	8.b-]	2.ryy	16r	8.gg
.	.	.	16ff	.
16r	.	.	[16ee-	.
8.r	8.a-	.	16ee-]	8.ff
.	.	.	16cc	.
.	.	.	[16dd	.
4.r	8.g	.	16dd]	8.ee-
.	.	.	16dd	.
.	.	.	[16cc	.
.	8.f	.	16cc]	[8.dd
.	.	.	16an	.
.	.	.	16b-	.
=75	=75	=75	=75	=75
8.E-	8.e-	2.ryy	8.g	16dd]
.	.	.	.	16dd
.	.	.	.	[16cc
8.r	8.d-	.	8.f	16cc]
.	.	.	.	16a
.	.	.	.	[16b-
4.r	8.c	.	8.e-	16b-]
.	.	.	.	16b-
.	.	.	.	[16a
.	8.B-	.	8.d-X	16a]
.	.	.	.	16f
.	.	.	.	16g
=76	=76	=76	=76	=76
8.E-	8.A;y	2.ryy	8.c;y	8.f;
8.r	8.r	.	8.r	8.r
16r	4.ryy	.	4.ryy	16r
16E-	.	.	.	16F
16D	.	.	.	16G
16C	.	.	.	16A
16BB-	.	.	.	16B-
16AA	.	.	.	16c
=77	=77	=77	=77	=77
16BB-	2.ryy	2.ryy	2.ryy	16d
16FF	.	.	.	16e-
16GG	.	.	.	16d
16AA	.	.	.	16c
16BB-	.	.	.	16B-
16C	.	.	.	16A
16D	.	.	.	16B-
16BB-	.	.	.	16a-
16C	.	.	.	16g
16D	.	.	.	16f
16E-	.	.	.	16e-
16F	.	.	.	16d
=78	=78	=78	=78	=78
16G	2.ryy	2.ryy	2.ryy	16e-
16A-	.	.	.	16B-
16G	.	.	.	16c
16F	.	.	.	16d
16E-	.	.	.	16e-
16D	.	.	.	16f
16E-	.	.	.	16g
16d	.	.	.	16e-
16c	.	.	.	16f
16B-	.	.	.	16g
16An	.	.	.	16an
16G	.	.	.	16b-
=79	=79	=79	=79	=79
16A	2.ryy	2.ryy	2.ryy	16cc
16En	.	.	.	16dd
16F	.	.	.	16cc
16G	.	.	.	16b-
16A	.	.	.	16a
16B-	.	.	.	16g
16c	.	.	.	16a
16A	.	.	.	16gg
16B-	.	.	.	16ff
16c	.	.	.	16ee-
16d	.	.	.	16dd
16e-	.	.	.	16cc
*clefG2	*	*	*	*
=80	=80	=80	=80	=80
16f	2.ryy	2.ryy	2.ryy	16dd
16g	.	.	.	16a
16f	.	.	.	16b-
16e-	.	.	.	16cc
16d	.	.	.	16dd
16c	.	.	.	16ee-
16d	.	.	.	16ff
16cc	.	.	.	16dd
16b-	.	.	.	16ee-
16a-	.	.	.	16ff
16g	.	.	.	16gg
16f	.	.	.	16aa-
=81	=81	=81	=81	=81
16g	2.ryy	2.ryy	2.ryy	16bb-
16a-	.	.	.	16ccc
16g	.	.	.	16bb-
16f	.	.	.	16aa-
16e-	.	.	.	16gg
16d	.	.	.	16ff
16e-	.	.	.	16gg
16f	.	.	.	16aa-
16e-	.	.	.	16gg
16d	.	.	.	16ff
16c	.	.	.	16ee-
16Bn	.	.	.	16dd
*clefF4	*	*	*	*
=82	=82	=82	=82	=82
*	*staff:2	*	*	*
16c	8.r	2.ryy	2.ryy	[2.ee-
16d	.	.	.	.
16c	.	.	.	.
16B-X	8.dd	.	.	.
16A	.	.	.	.
16G	.	.	.	.
16A	8.cc	.	.	.
16AA	.	.	.	.
16BB-	.	.	.	.
16C	8.b-	.	.	.
16D	.	.	.	.
16E-	.	.	.	.
=83	=83	=83	=83	=83
[8.FF	8a	2.ryy	2.ryy	16ee-]
.	.	.	.	16f
.	16ryy	.	.	16en
8FF]	8.ryy	.	.	16f
.	.	.	.	16g
16e-	.	.	.	16a
8d-	4.ryy	.	.	16b-
.	.	.	.	16f
16c	.	.	.	16en
16d-	.	.	.	16f
16f	.	.	.	16a
16B-	.	.	.	16b-
=84	=84	=84	=84	=84
8A	2.ryy	2.ryy	2.ryy	16cc
.	.	.	.	16f
16G	.	.	.	16en
16A	.	.	.	16f
16c	.	.	.	16b-
16F	.	.	.	16cc
16B-	.	.	.	16dd-
16d-	.	.	.	16b-
16A-	.	.	.	16cc
16G-	.	.	.	16dd-
16B-	.	.	.	16ee-
16F	.	.	.	16ff
=85	=85	=85	=85	=85
[8.E-	2.ryy	2.ryy	2.ryy	16gg-
.	.	.	.	16ee-
.	.	.	.	16ff
16E-]	.	.	.	16gg-
16BB-	.	.	.	16aa-
16GG-	.	.	.	16bb-
16EE-	.	.	.	16ccc-
16GG-	.	.	.	16bb-
16BB-	.	.	.	16aa-X
16E-	.	.	.	16gg-X
16F	.	.	.	16ff
[16G-X	.	.	.	16ee-
=86	=86	=86	=86	=86
16G-]	2.ryy	2.ryy	2.ryy	16aan
16F	.	.	.	16cccn
16Gn	.	.	.	16ee-
16A	.	.	.	16gg-
16B-	.	.	.	16ff
16c	.	.	.	16ee-
16d	.	.	.	16ff
16e-	.	.	.	16bb-
16f	.	.	.	16dd
16g	.	.	.	16ee-
16f	.	.	.	16ff
16e-	.	.	.	16ggn
=87	=87	=87	=87	=87
16d	2.ryy	2.ryy	2.ryy	16ff
16c	.	.	.	16ee-
16B-	.	.	.	16dd
8f	.	.	.	16cc
.	.	.	.	16bb-
16F	.	.	.	16aa
16BB-	.	.	.	16bb-
16D	.	.	.	16ff
16F	.	.	.	16dd
8.B-	.	.	.	8.b-
==:|	==:|	==:|	==:|	==:|
*-	*-	*-	*-	*-
!!!AFR:  prelude
!!!EFL:  89/96
!!!END:  1994/02/15/
!!!VID:  2057266542 Bach, BWV 890-01
!!!AST:  Baroque
!!!OCY:  Deutschland
!!!ODT:  1742///
!!!PDT:  1801///
!!!EED:  Walter Hewlett
!!!ENC:  Walter Hewlett
!!!YOR:  Bach Gesellschaft Edition xiv
!!!AFT:  enhanced SCORE
!!!RDT:  2011/10/07/ by Andreas Kornstaedt using massScr2hmd
!!!SCA1: Thematisch-systematisches Verzeichnis der musikalischen Werke 
!!!SCA2: Johann Sebastian Bach: Bach-Werke-Verzeichnis (Schmieder)
!!!YEC1: Copyright 1994, 2000 Center for Computer Assisted Research 
!!!YEC2: in the Humanities
!!!YEM1: Rights to all derivative editions reserved.
!!!YEM2: Refer to licensing agreement for further details.
!!!YEN:  United States of America
!!!ref:  @{OTL}, @{SCT}
!!muse2ps: T^@{OTL} @{ONM} in @{OKY}^C^J.S. Bach\n@{SCT}-@{OMV}^
!!muse2ps: u^@{OPR@ENG}, @{OVM@ENG}^j
